src/images/instagram-icon.svg

<svg fill="none" height="48" viewBox="0 0 48 48" width="48" xmlns="http://www.w3.org/2000/svg" xmlns:xlink="http://www.w3.org/1999/xlink"><clipPath id="a"><path d="m0 0h48v48h-48z"/></clipPath><g clip-path="url(#a)" fill="#fff"><path d="m24 4.32466c6.4082 0 7.1671.02466 9.6979.13972 2.3398.10685 3.611.49795 4.4569.82672 1.1199.43561 1.9199.95479 2.7589 1.7952.8404.83973 1.3596 1.63904 1.7952 2.75959.3288.84591.7192 2.11641.8267 4.45681.1151 2.5309.1397 3.2898.1397 9.698s-.0246 7.1678-.1397 9.6979c-.1075 2.3404-.4979 3.611-.8267 4.4562-.4356 1.1205-.9548 1.9199-1.7952 2.7596-.8397.8397-1.639 1.3596-2.7589 1.7952-.8459.3288-2.1171.7199-4.4569.8267-2.5308.1151-3.289.1397-9.6979.1397s-7.1678-.0246-9.6979-.1397c-2.3398-.1068-3.611-.4979-4.45621-.8267-1.12055-.4356-1.91986-.9555-2.76027-1.7952-.83973-.8397-1.35959-1.6391-1.79521-2.7596-.32808-.8459-.71918-2.1164-.82671-4.4562-.11507-2.5301-.13973-3.289-.13973-9.6979s.02466-7.1671.13973-9.698c.10753-2.3404.49794-3.6109.82671-4.45681.43562-1.11986.95548-1.91918 1.79521-2.75959.84041-.84041 1.63972-1.35959 2.76027-1.7952.84521-.32877 2.11641-.71987 4.45621-.82672 2.5308-.11575 3.2904-.13972 9.6979-.13972zm0-4.32466c-6.5185 0-7.3356.0280822-9.8952.144521-2.5548.116438-4.29864.522602-5.82535 1.115749-1.57877.6137-2.91712 1.43357-4.25137 2.7685-1.33424 1.33424-2.15479 2.67328-2.76781 4.25068-.593832 1.52671-.999311 3.27125-1.115749 5.82535-.1171237 2.5603-.144521 3.3774-.144521 9.8952s.0273973 7.3356.144521 9.8952c.115753 2.5548.521917 4.2986 1.115749 5.8253.61302 1.5781 1.43357 2.9172 2.76781 4.2507 1.33425 1.3343 2.6726 2.1548 4.25137 2.7685 1.52671.5932 3.27125.9987 5.82535 1.1158 2.5603.1164 3.3774.1438 9.8952.1438s7.3349-.0274 9.8952-.1438c2.5548-.1165 4.2993-.5226 5.826-1.1158 1.5781-.6137 2.9172-1.4342 4.2514-2.7685 1.3343-1.3342 2.1548-2.6733 2.7685-4.2507.5931-1.5267.9993-3.2712 1.1157-5.8253.1165-2.5603.1439-3.3774.1439-9.8952s-.0274-7.3349-.1439-9.8952c-.1164-2.5548-.5226-4.29864-1.1157-5.82535-.6137-1.57808-1.4342-2.91712-2.7685-4.25068-1.3342-1.33425-2.6726-2.1548-4.2514-2.7685-1.5267-.593147-3.2712-.999311-5.826-1.115749-2.5603-.1164388-3.3774-.144521-9.8952-.144521"/><path d="m39.6918 11.1883c0 1.6986-1.4706 3.0541-3.2076 2.8623-1.3171-.1452-2.3883-1.2164-2.5342-2.5335-.1925-1.73771 1.163-3.20826 2.8623-3.20826 1.5904 0 2.8802 1.28972 2.8802 2.88016"/><path d="m23.9986 12.011c-6.6198 0-11.9876 5.3678-11.9876 11.9877 0 6.6198 5.3678 11.9904 11.9876 11.9904 6.6199 0 11.9904-5.3678 11.9904-11.9904s-5.3678-11.9877-11.9904-11.9877zm0 19.987c-4.4171 0-7.9993-3.5795-7.9993-7.9993 0-4.4199 3.5822-7.9994 7.9993-7.9994 4.4172 0 7.9993 3.5822 7.9993 7.9994 0 4.4171-3.5794 7.9993-7.9993 7.9993z"/></g></svg>

<svg width="48" height="48" viewBox="0 0 48 48" fill="none" xmlns="http://www.w3.org/2000/svg">
<g clip-path="url(#clip0_324_152)">
<path d="M24 4.32466C30.4082 4.32466 31.1671 4.34932 33.6979 4.46438C36.0377 4.57123 37.3089 4.96233 38.1548 5.2911C39.2747 5.72671 40.0747 6.24589 40.9137 7.0863C41.7541 7.92603 42.2733 8.72534 42.7089 9.84589C43.0377 10.6918 43.4281 11.9623 43.5356 14.3027C43.6507 16.8336 43.6753 17.5925 43.6753 24.0007C43.6753 30.4089 43.6507 31.1685 43.5356 33.6986C43.4281 36.039 43.0377 37.3096 42.7089 38.1548C42.2733 39.2753 41.7541 40.0747 40.9137 40.9144C40.074 41.7541 39.2747 42.274 38.1548 42.7096C37.3089 43.0384 36.0377 43.4295 33.6979 43.5363C31.1671 43.6514 30.4089 43.676 24 43.676C17.5911 43.676 16.8322 43.6514 14.3021 43.5363C11.9623 43.4295 10.6911 43.0384 9.84589 42.7096C8.72534 42.274 7.92603 41.7541 7.08562 40.9144C6.24589 40.0747 5.72603 39.2753 5.29041 38.1548C4.96233 37.3089 4.57123 36.0384 4.4637 33.6986C4.34863 31.1685 4.32397 30.4096 4.32397 24.0007C4.32397 17.5918 4.34863 16.8336 4.4637 14.3027C4.57123 11.9623 4.96164 10.6918 5.29041 9.84589C5.72603 8.72603 6.24589 7.92671 7.08562 7.0863C7.92603 6.24589 8.72534 5.72671 9.84589 5.2911C10.6911 4.96233 11.9623 4.57123 14.3021 4.46438C16.8329 4.34863 17.5925 4.32466 24 4.32466ZM24 0C17.4815 0 16.6644 0.0280822 14.1048 0.144521C11.55 0.260959 9.80616 0.667123 8.27945 1.26027C6.70068 1.87397 5.36233 2.69384 4.02808 4.02877C2.69384 5.36301 1.87329 6.70205 1.26027 8.27945C0.666438 9.80616 0.260959 11.5507 0.144521 14.1048C0.0273973 16.6651 0 17.4822 0 24C0 30.5178 0.0273973 31.3356 0.144521 33.8952C0.260274 36.45 0.666438 38.1938 1.26027 39.7205C1.87329 41.2986 2.69384 42.6377 4.02808 43.9712C5.36233 45.3055 6.70068 46.126 8.27945 46.7397C9.80616 47.3329 11.5507 47.7384 14.1048 47.8555C16.6651 47.9719 17.4822 47.9993 24 47.9993C30.5178 47.9993 31.3349 47.9719 33.8952 47.8555C36.45 47.739 38.1945 47.3329 39.7212 46.7397C41.2993 46.126 42.6384 45.3055 43.9726 43.9712C45.3069 42.637 46.1274 41.2979 46.7411 39.7205C47.3342 38.1938 47.7404 36.4493 47.8568 33.8952C47.9733 31.3349 48.0007 30.5178 48.0007 24C48.0007 17.4822 47.9733 16.6651 47.8568 14.1048C47.7404 11.55 47.3342 9.80616 46.7411 8.27945C46.1274 6.70137 45.3069 5.36233 43.9726 4.02877C42.6384 2.69452 41.3 1.87397 39.7212 1.26027C38.1945 0.667123 36.45 0.260959 33.8952 0.144521C31.3349 0.0280822 30.5178 0 24 0" fill="white"/>
<path d="M39.6918 11.1883C39.6918 12.8869 38.2212 14.2424 36.4842 14.0506C35.1671 13.9054 34.0959 12.8342 33.95 11.5171C33.7575 9.77939 35.113 8.30884 36.8123 8.30884C38.4027 8.30884 39.6925 9.59856 39.6925 11.189" fill="white"/>
<path d="M23.9986 12.011C17.3788 12.011 12.011 17.3788 12.011 23.9987C12.011 30.6185 17.3788 35.9891 23.9986 35.9891C30.6185 35.9891 35.989 30.6213 35.989 23.9987C35.989 17.3761 30.6212 12.011 23.9986 12.011ZM23.9986 31.998C19.5815 31.998 15.9993 28.4185 15.9993 23.9987C15.9993 19.5788 19.5815 15.9993 23.9986 15.9993C28.4158 15.9993 31.9979 19.5815 31.9979 23.9987C31.9979 28.4158 28.4185 31.998 23.9986 31.998Z" fill="white"/>
</g>
<defs>
<clipPath id="clip0_324_152">
<rect width="48" height="48" fill="white"/>
</clipPath>
</defs>
</svg>
